custom-collections/_inc/system.svg

<svg viewBox="0 0 200 40" xmlns="http://www.w3.org/2000/svg"><g fill="#fff"><path d="m12.39 13.83-.48 5.04c-1.28.52-2.9.78-4.86.78-2.52 0-4.327-.49-5.42-1.47-1.087-.98-1.63-2.49-1.63-4.53 0-.86.14-2.13.42-3.81.6-3.44 1.633-5.94 3.1-7.5 1.473-1.56 3.8-2.34 6.98-2.34.74 0 1.587.077 2.54.23.947.147 1.64.33 2.08.55l-1.68 4.59c-1.18-.28-2.283-.42-3.31-.42-1.033 0-1.77.1-2.21.3-.44.2-.71.6-.81 1.2l-1.38 7.86c.72.16 1.46.24 2.22.24 1.62 0 3.1-.24 4.44-.72zm4.98-13.38h5.7l-2.49 14.07h2.04c.7 0 1.2-.093 1.5-.28.3-.193.51-.63.63-1.31l2.22-12.48h5.7l-1.86 10.53c-.3 1.7-.647 3.07-1.04 4.11-.387 1.04-.93 1.92-1.63 2.64-.7.72-1.567 1.22-2.6 1.5-1.027.28-2.33.42-3.91.42-2.42 0-4.117-.367-5.09-1.1-.967-.727-1.45-1.98-1.45-3.76 0-.98.14-2.25.42-3.81zm14.789 18.42 1.68-4.95c1.68.46 3.22.69 4.62.69 1.4 0 2.53-.06 3.39-.18l.24-1.5-2.49-.24c-1.9-.18-3.246-.61-4.04-1.29-.786-.68-1.18-1.64-1.18-2.88 0-.54.06-1.14.18-1.8.46-2.56 1.294-4.32 2.5-5.28 1.214-.96 3.09-1.44 5.63-1.44 2.54 0 4.78.25 6.72.75l-1.56 4.8c-1.74-.3-3.14-.45-4.2-.45-1.06 0-1.96.05-2.7.15l-.24 1.47 2.01.21c2.04.22 3.49.707 4.35 1.46.86.747 1.29 1.75 1.29 3.01 0 1.28-.28 2.6-.84 3.96-.28.7-.586 1.287-.92 1.76-.326.467-.746.863-1.26 1.19-.506.333-.97.583-1.39.75-.42.173-.95.3-1.59.38-.94.14-2.09.21-3.45.21-2.48 0-4.73-.26-6.75-.78zm33.69-18.42-.87 4.8h-4.14l-2.43 13.95h-5.7l2.43-13.95h-4.11l.87-4.8zm6.57 6.27-1.38 7.8h2.37c.78 0 1.36-.093 1.74-.28.38-.193.63-.63.75-1.31l1.38-7.8h-2.4c-.76 0-1.33.093-1.71.28-.38.193-.63.63-.75 1.31zm3.45-6.72c2.54 0 4.35.497 5.43 1.49 1.08.987 1.62 2.51 1.62 4.57 0 2.06-.327 4.217-.98 6.47-.647 2.247-1.677 3.993-3.09 5.24-1.407 1.253-3.467 1.88-6.18 1.88-2.707 0-4.6-.493-5.68-1.48-1.08-.993-1.62-2.52-1.62-4.58 0-.98.14-2.273.42-3.88.28-1.613.65-3.003 1.11-4.17.46-1.173 1.08-2.19 1.86-3.05 1.5-1.66 3.87-2.49 7.11-2.49zm15.33 10.11-1.95 9.09h-5.94l4.38-18.75h7.44l.54 9.54h.21l3.9-9.54h7.44l-2.22 18.75h-5.97l1.26-9.09h-.21l-3.75 9.09h-4.35l-.63-9.09z"/><path d="m43.282 34.18-.48 5.04c-1.28.52-2.9.78-4.86.78-2.52 0-4.327-.49-5.42-1.47-1.087-.98-1.63-2.49-1.63-4.53 0-.86.14-2.13.42-3.81.6-3.44 1.633-5.94 3.1-7.5 1.473-1.56 3.8-2.34 6.98-2.34.74 0 1.587.077 2.54.23.947.147 1.64.33 2.08.55l-1.68 4.59c-1.18-.28-2.283-.42-3.31-.42-1.033 0-1.77.1-2.21.3-.44.2-.71.6-.81 1.2l-1.38 7.86c.72.16 1.46.24 2.22.24 1.62 0 3.1-.24 4.44-.72zm9.57-7.11-1.38 7.8h2.37c.78 0 1.36-.093 1.74-.28.38-.193.63-.63.75-1.31l1.38-7.8h-2.4c-.76 0-1.33.093-1.71.28-.38.193-.63.63-.75 1.31zm3.45-6.72c2.54 0 4.35.497 5.43 1.49 1.08.987 1.62 2.51 1.62 4.57 0 2.06-.327 4.217-.98 6.47-.647 2.247-1.677 3.993-3.09 5.24-1.407 1.253-3.467 1.88-6.18 1.88-2.707 0-4.6-.493-5.68-1.48-1.08-.993-1.62-2.52-1.62-4.58 0-.98.14-2.273.42-3.88.28-1.613.65-3.003 1.11-4.17.46-1.173 1.08-2.19 1.86-3.05 1.5-1.66 3.87-2.49 7.11-2.49zm20.219 14.4-.84 4.8h-11.4l3.3-18.75h5.7l-2.46 13.95zm12.78 0-.84 4.8h-11.4l3.3-18.75h5.7l-2.46 13.95zm13.95-6.63-.78 4.35h-5.7l-.39 2.28h6.99l-.84 4.8h-12.69l3.3-18.75h12.54l-1.56 4.8h-6.15l-.42 2.52zm15.39 6.06-.48 5.04c-1.28.52-2.9.78-4.86.78-2.52 0-4.327-.49-5.42-1.47-1.087-.98-1.63-2.49-1.63-4.53 0-.86.14-2.13.42-3.81.6-3.44 1.633-5.94 3.1-7.5 1.473-1.56 3.8-2.34 6.98-2.34.74 0 1.586.077 2.54.23.946.147 1.64.33 2.08.55l-1.68 4.59c-1.18-.28-2.284-.42-3.31-.42-1.034 0-1.77.1-2.21.3-.44.2-.71.6-.81 1.2l-1.38 7.86c.72.16 1.46.24 2.22.24 1.62 0 3.1-.24 4.44-.72zm18-13.38-.87 4.8h-4.14l-2.43 13.95h-5.7l2.43-13.95h-4.11l.87-4.8zm4.559 18.75h-5.7l3.3-18.75h5.7zm11.01-12.48-1.38 7.8h2.37c.78 0 1.36-.093 1.74-.28.38-.193.63-.63.75-1.31l1.38-7.8h-2.4c-.76 0-1.33.093-1.71.28-.38.193-.63.63-.75 1.31zm3.45-6.72c2.54 0 4.35.497 5.43 1.49 1.08.987 1.62 2.51 1.62 4.57 0 2.06-.326 4.217-.98 6.47-.646 2.247-1.676 3.993-3.09 5.24-1.406 1.253-3.466 1.88-6.18 1.88-2.706 0-4.6-.493-5.68-1.48-1.08-.993-1.62-2.52-1.62-4.58 0-.98.14-2.273.42-3.88.28-1.613.65-3.003 1.11-4.17.46-1.173 1.08-2.19 1.86-3.05 1.5-1.66 3.87-2.49 7.11-2.49zm23.82 19.2h-5.37l-3.06-6.66c-.08-.14-.12-.337-.12-.59 0-.247.02-.53.06-.85h-.24l-1.41 8.1h-5.7l3.3-18.75h5.37l3.06 6.66c.06.14.09.337.09.59 0 .247-.02.53-.06.85h.24l1.44-8.1h5.7zm3.27-.33 1.68-4.95c1.68.46 3.22.69 4.62.69 1.4 0 2.53-.06 3.39-.18l.24-1.5-2.49-.24c-1.9-.18-3.247-.61-4.04-1.29-.787-.68-1.18-1.64-1.18-2.88 0-.54.06-1.14.18-1.8.46-2.56 1.293-4.32 2.5-5.28 1.213-.96 3.09-1.44 5.63-1.44 2.54 0 4.78.25 6.72.75l-1.56 4.8c-1.74-.3-3.14-.45-4.2-.45-1.06 0-1.96.05-2.7.15l-.24 1.47 2.01.21c2.04.22 3.49.707 4.35 1.46.86.747 1.29 1.75 1.29 3.01 0 1.28-.28 2.6-.84 3.96-.28.7-.587 1.287-.92 1.76-.327.467-.747.863-1.26 1.19-.507.333-.97.583-1.39.75-.42.173-.95.3-1.59.38-.94.14-2.09.21-3.45.21-2.48 0-4.73-.26-6.75-.78z"/></g></svg>

<?xml version="1.0" encoding="utf-8"?>
<svg viewBox="0 0 200 40" xmlns="http://www.w3.org/2000/svg">
  <path d="M 12.39 13.83 L 12.39 13.83 L 11.91 18.87 L 11.91 18.87 C 10.63 19.39 9.01 19.65 7.05 19.65 L 7.05 19.65 L 7.05 19.65 C 4.53 19.65 2.723 19.16 1.63 18.18 L 1.63 18.18 L 1.63 18.18 C 0.543 17.2 0 15.69 0 13.65 L 0 13.65 L 0 13.65 C 0 12.79 0.14 11.52 0.42 9.84 L 0.42 9.84 L 0.42 9.84 C 1.02 6.4 2.053 3.9 3.52 2.34 L 3.52 2.34 L 3.52 2.34 C 4.993 0.78 7.32 0 10.5 0 L 10.5 0 L 10.5 0 C 11.24 0 12.087 0.077 13.04 0.23 L 13.04 0.23 L 13.04 0.23 C 13.987 0.377 14.68 0.56 15.12 0.78 L 15.12 0.78 L 13.44 5.37 L 13.44 5.37 C 12.26 5.09 11.157 4.95 10.13 4.95 L 10.13 4.95 L 10.13 4.95 C 9.097 4.95 8.36 5.05 7.92 5.25 L 7.92 5.25 L 7.92 5.25 C 7.48 5.45 7.21 5.85 7.11 6.45 L 7.11 6.45 L 5.73 14.31 L 5.73 14.31 C 6.45 14.47 7.19 14.55 7.95 14.55 L 7.95 14.55 L 7.95 14.55 C 9.57 14.55 11.05 14.31 12.39 13.83 Z M 17.37 0.45 L 23.07 0.45 L 20.58 14.52 L 22.62 14.52 L 22.62 14.52 C 23.32 14.52 23.82 14.427 24.12 14.24 L 24.12 14.24 L 24.12 14.24 C 24.42 14.047 24.63 13.61 24.75 12.93 L 24.75 12.93 L 26.97 0.45 L 32.67 0.45 L 30.81 10.98 L 30.81 10.98 C 30.51 12.68 30.163 14.05 29.77 15.09 L 29.77 15.09 L 29.77 15.09 C 29.383 16.13 28.84 17.01 28.14 17.73 L 28.14 17.73 L 28.14 17.73 C 27.44 18.45 26.573 18.95 25.54 19.23 L 25.54 19.23 L 25.54 19.23 C 24.513 19.51 23.21 19.65 21.63 19.65 L 21.63 19.65 L 21.63 19.65 C 19.21 19.65 17.513 19.283 16.54 18.55 L 16.54 18.55 L 16.54 18.55 C 15.573 17.823 15.09 16.57 15.09 14.79 L 15.09 14.79 L 15.09 14.79 C 15.09 13.81 15.23 12.54 15.51 10.98 L 15.51 10.98 L 17.37 0.45 Z M 32.159 18.87 L 32.159 18.87 L 33.839 13.92 L 33.839 13.92 C 35.519 14.38 37.059 14.61 38.459 14.61 L 38.459 14.61 L 38.459 14.61 C 39.859 14.61 40.989 14.55 41.849 14.43 L 41.849 14.43 L 42.089 12.93 L 39.599 12.69 L 39.599 12.69 C 37.699 12.51 36.353 12.08 35.559 11.4 L 35.559 11.4 L 35.559 11.4 C 34.773 10.72 34.379 9.76 34.379 8.52 L 34.379 8.52 L 34.379 8.52 C 34.379 7.98 34.439 7.38 34.559 6.72 L 34.559 6.72 L 34.559 6.72 C 35.019 4.16 35.853 2.4 37.059 1.44 L 37.059 1.44 L 37.059 1.44 C 38.273 0.48 40.149 0 42.689 0 L 42.689 0 L 42.689 0 C 45.229 0 47.469 0.25 49.409 0.75 L 49.409 0.75 L 47.849 5.55 L 47.849 5.55 C 46.109 5.25 44.709 5.1 43.649 5.1 L 43.649 5.1 L 43.649 5.1 C 42.589 5.1 41.689 5.15 40.949 5.25 L 40.949 5.25 L 40.709 6.72 L 42.719 6.93 L 42.719 6.93 C 44.759 7.15 46.209 7.637 47.069 8.39 L 47.069 8.39 L 47.069 8.39 C 47.929 9.137 48.359 10.14 48.359 11.4 L 48.359 11.4 L 48.359 11.4 C 48.359 12.68 48.079 14 47.519 15.36 L 47.519 15.36 L 47.519 15.36 C 47.239 16.06 46.933 16.647 46.599 17.12 L 46.599 17.12 L 46.599 17.12 C 46.273 17.587 45.853 17.983 45.339 18.31 L 45.339 18.31 L 45.339 18.31 C 44.833 18.643 44.369 18.893 43.949 19.06 L 43.949 19.06 L 43.949 19.06 C 43.529 19.233 42.999 19.36 42.359 19.44 L 42.359 19.44 L 42.359 19.44 C 41.419 19.58 40.269 19.65 38.909 19.65 L 38.909 19.65 L 38.909 19.65 C 36.429 19.65 34.179 19.39 32.159 18.87 Z M 65.849 0.45 L 64.979 5.25 L 60.839 5.25 L 58.409 19.2 L 52.709 19.2 L 55.139 5.25 L 51.029 5.25 L 51.899 0.45 L 65.849 0.45 Z M 72.419 6.72 L 72.419 6.72 L 71.039 14.52 L 73.409 14.52 L 73.409 14.52 C 74.189 14.52 74.769 14.427 75.149 14.24 L 75.149 14.24 L 75.149 14.24 C 75.529 14.047 75.779 13.61 75.899 12.93 L 75.899 12.93 L 77.279 5.13 L 74.879 5.13 L 74.879 5.13 C 74.119 5.13 73.549 5.223 73.169 5.41 L 73.169 5.41 L 73.169 5.41 C 72.789 5.603 72.539 6.04 72.419 6.72 Z M 75.869 0 L 75.869 0 L 75.869 0 C 78.409 0 80.219 0.497 81.299 1.49 L 81.299 1.49 L 81.299 1.49 C 82.379 2.477 82.919 4 82.919 6.06 L 82.919 6.06 L 82.919 6.06 C 82.919 8.12 82.592 10.277 81.939 12.53 L 81.939 12.53 L 81.939 12.53 C 81.292 14.777 80.262 16.523 78.849 17.77 L 78.849 17.77 L 78.849 17.77 C 77.442 19.023 75.382 19.65 72.669 19.65 L 72.669 19.65 L 72.669 19.65 C 69.962 19.65 68.069 19.157 66.989 18.17 L 66.989 18.17 L 66.989 18.17 C 65.909 17.177 65.369 15.65 65.369 13.59 L 65.369 13.59 L 65.369 13.59 C 65.369 12.61 65.509 11.317 65.789 9.71 L 65.789 9.71 L 65.789 9.71 C 66.069 8.097 66.439 6.707 66.899 5.54 L 66.899 5.54 L 66.899 5.54 C 67.359 4.367 67.979 3.35 68.759 2.49 L 68.759 2.49 L 68.759 2.49 C 70.259 0.83 72.629 0 75.869 0 Z M 91.199 10.11 L 89.249 19.2 L 83.309 19.2 L 87.689 0.45 L 95.129 0.45 L 95.669 9.99 L 95.879 9.99 L 99.779 0.45 L 107.219 0.45 L 104.999 19.2 L 99.029 19.2 L 100.289 10.11 L 100.079 10.11 L 96.329 19.2 L 91.979 19.2 L 91.349 10.11 L 91.199 10.11 Z" style="white-space: pre; fill: rgb(255, 255, 255);"/>
  <path d="M 43.282 34.18 L 43.282 34.18 L 42.802 39.22 L 42.802 39.22 C 41.522 39.74 39.902 40 37.942 40 L 37.942 40 L 37.942 40 C 35.422 40 33.615 39.51 32.522 38.53 L 32.522 38.53 L 32.522 38.53 C 31.435 37.55 30.892 36.04 30.892 34 L 30.892 34 L 30.892 34 C 30.892 33.14 31.032 31.87 31.312 30.19 L 31.312 30.19 L 31.312 30.19 C 31.912 26.75 32.945 24.25 34.412 22.69 L 34.412 22.69 L 34.412 22.69 C 35.885 21.13 38.212 20.35 41.392 20.35 L 41.392 20.35 L 41.392 20.35 C 42.132 20.35 42.979 20.427 43.932 20.58 L 43.932 20.58 L 43.932 20.58 C 44.879 20.727 45.572 20.91 46.012 21.13 L 46.012 21.13 L 44.332 25.72 L 44.332 25.72 C 43.152 25.44 42.049 25.3 41.022 25.3 L 41.022 25.3 L 41.022 25.3 C 39.989 25.3 39.252 25.4 38.812 25.6 L 38.812 25.6 L 38.812 25.6 C 38.372 25.8 38.102 26.2 38.002 26.8 L 38.002 26.8 L 36.622 34.66 L 36.622 34.66 C 37.342 34.82 38.082 34.9 38.842 34.9 L 38.842 34.9 L 38.842 34.9 C 40.462 34.9 41.942 34.66 43.282 34.18 Z M 52.852 27.07 L 52.852 27.07 L 51.472 34.87 L 53.842 34.87 L 53.842 34.87 C 54.622 34.87 55.202 34.777 55.582 34.59 L 55.582 34.59 L 55.582 34.59 C 55.962 34.397 56.212 33.96 56.332 33.28 L 56.332 33.28 L 57.712 25.48 L 55.312 25.48 L 55.312 25.48 C 54.552 25.48 53.982 25.573 53.602 25.76 L 53.602 25.76 L 53.602 25.76 C 53.222 25.953 52.972 26.39 52.852 27.07 Z M 56.302 20.35 L 56.302 20.35 L 56.302 20.35 C 58.842 20.35 60.652 20.847 61.732 21.84 L 61.732 21.84 L 61.732 21.84 C 62.812 22.827 63.352 24.35 63.352 26.41 L 63.352 26.41 L 63.352 26.41 C 63.352 28.47 63.025 30.627 62.372 32.88 L 62.372 32.88 L 62.372 32.88 C 61.725 35.127 60.695 36.873 59.282 38.12 L 59.282 38.12 L 59.282 38.12 C 57.875 39.373 55.815 40 53.102 40 L 53.102 40 L 53.102 40 C 50.395 40 48.502 39.507 47.422 38.52 L 47.422 38.52 L 47.422 38.52 C 46.342 37.527 45.802 36 45.802 33.94 L 45.802 33.94 L 45.802 33.94 C 45.802 32.96 45.942 31.667 46.222 30.06 L 46.222 30.06 L 46.222 30.06 C 46.502 28.447 46.872 27.057 47.332 25.89 L 47.332 25.89 L 47.332 25.89 C 47.792 24.717 48.412 23.7 49.192 22.84 L 49.192 22.84 L 49.192 22.84 C 50.692 21.18 53.062 20.35 56.302 20.35 Z M 76.521 34.75 L 75.681 39.55 L 64.281 39.55 L 67.581 20.8 L 73.281 20.8 L 70.821 34.75 L 76.521 34.75 Z M 89.301 34.75 L 88.461 39.55 L 77.061 39.55 L 80.361 20.8 L 86.061 20.8 L 83.601 34.75 L 89.301 34.75 Z M 103.251 28.12 L 102.471 32.47 L 96.771 32.47 L 96.381 34.75 L 103.371 34.75 L 102.531 39.55 L 89.841 39.55 L 93.141 20.8 L 105.681 20.8 L 104.121 25.6 L 97.971 25.6 L 97.551 28.12 L 103.251 28.12 Z M 118.641 34.18 L 118.641 34.18 L 118.161 39.22 L 118.161 39.22 C 116.881 39.74 115.261 40 113.301 40 L 113.301 40 L 113.301 40 C 110.781 40 108.974 39.51 107.881 38.53 L 107.881 38.53 L 107.881 38.53 C 106.794 37.55 106.251 36.04 106.251 34 L 106.251 34 L 106.251 34 C 106.251 33.14 106.391 31.87 106.671 30.19 L 106.671 30.19 L 106.671 30.19 C 107.271 26.75 108.304 24.25 109.771 22.69 L 109.771 22.69 L 109.771 22.69 C 111.244 21.13 113.571 20.35 116.751 20.35 L 116.751 20.35 L 116.751 20.35 C 117.491 20.35 118.337 20.427 119.291 20.58 L 119.291 20.58 L 119.291 20.58 C 120.237 20.727 120.931 20.91 121.371 21.13 L 121.371 21.13 L 119.691 25.72 L 119.691 25.72 C 118.511 25.44 117.407 25.3 116.381 25.3 L 116.381 25.3 L 116.381 25.3 C 115.347 25.3 114.611 25.4 114.171 25.6 L 114.171 25.6 L 114.171 25.6 C 113.731 25.8 113.461 26.2 113.361 26.8 L 113.361 26.8 L 111.981 34.66 L 111.981 34.66 C 112.701 34.82 113.441 34.9 114.201 34.9 L 114.201 34.9 L 114.201 34.9 C 115.821 34.9 117.301 34.66 118.641 34.18 Z M 136.641 20.8 L 135.771 25.6 L 131.631 25.6 L 129.201 39.55 L 123.501 39.55 L 125.931 25.6 L 121.821 25.6 L 122.691 20.8 L 136.641 20.8 Z M 141.2 39.55 L 135.5 39.55 L 138.8 20.8 L 144.5 20.8 L 141.2 39.55 Z M 152.21 27.07 L 152.21 27.07 L 150.83 34.87 L 153.2 34.87 L 153.2 34.87 C 153.98 34.87 154.56 34.777 154.94 34.59 L 154.94 34.59 L 154.94 34.59 C 155.32 34.397 155.57 33.96 155.69 33.28 L 155.69 33.28 L 157.07 25.48 L 154.67 25.48 L 154.67 25.48 C 153.91 25.48 153.34 25.573 152.96 25.76 L 152.96 25.76 L 152.96 25.76 C 152.58 25.953 152.33 26.39 152.21 27.07 Z M 155.66 20.35 L 155.66 20.35 L 155.66 20.35 C 158.2 20.35 160.01 20.847 161.09 21.84 L 161.09 21.84 L 161.09 21.84 C 162.17 22.827 162.71 24.35 162.71 26.41 L 162.71 26.41 L 162.71 26.41 C 162.71 28.47 162.384 30.627 161.73 32.88 L 161.73 32.88 L 161.73 32.88 C 161.084 35.127 160.054 36.873 158.64 38.12 L 158.64 38.12 L 158.64 38.12 C 157.234 39.373 155.174 40 152.46 40 L 152.46 40 L 152.46 40 C 149.754 40 147.86 39.507 146.78 38.52 L 146.78 38.52 L 146.78 38.52 C 145.7 37.527 145.16 36 145.16 33.94 L 145.16 33.94 L 145.16 33.94 C 145.16 32.96 145.3 31.667 145.58 30.06 L 145.58 30.06 L 145.58 30.06 C 145.86 28.447 146.23 27.057 146.69 25.89 L 146.69 25.89 L 146.69 25.89 C 147.15 24.717 147.77 23.7 148.55 22.84 L 148.55 22.84 L 148.55 22.84 C 150.05 21.18 152.42 20.35 155.66 20.35 Z M 179.48 39.55 L 174.11 39.55 L 171.05 32.89 L 171.05 32.89 C 170.97 32.75 170.93 32.553 170.93 32.3 L 170.93 32.3 L 170.93 32.3 C 170.93 32.053 170.95 31.77 170.99 31.45 L 170.99 31.45 L 170.75 31.45 L 169.34 39.55 L 163.64 39.55 L 166.94 20.8 L 172.31 20.8 L 175.37 27.46 L 175.37 27.46 C 175.43 27.6 175.46 27.797 175.46 28.05 L 175.46 28.05 L 175.46 28.05 C 175.46 28.297 175.44 28.58 175.4 28.9 L 175.4 28.9 L 175.64 28.9 L 177.08 20.8 L 182.78 20.8 L 179.48 39.55 Z M 182.75 39.22 L 182.75 39.22 L 184.43 34.27 L 184.43 34.27 C 186.11 34.73 187.65 34.96 189.05 34.96 L 189.05 34.96 L 189.05 34.96 C 190.45 34.96 191.58 34.9 192.44 34.78 L 192.44 34.78 L 192.68 33.28 L 190.19 33.04 L 190.19 33.04 C 188.29 32.86 186.943 32.43 186.15 31.75 L 186.15 31.75 L 186.15 31.75 C 185.363 31.07 184.97 30.11 184.97 28.87 L 184.97 28.87 L 184.97 28.87 C 184.97 28.33 185.03 27.73 185.15 27.07 L 185.15 27.07 L 185.15 27.07 C 185.61 24.51 186.443 22.75 187.65 21.79 L 187.65 21.79 L 187.65 21.79 C 188.863 20.83 190.74 20.35 193.28 20.35 L 193.28 20.35 L 193.28 20.35 C 195.82 20.35 198.06 20.6 200 21.1 L 200 21.1 L 198.44 25.9 L 198.44 25.9 C 196.7 25.6 195.3 25.45 194.24 25.45 L 194.24 25.45 L 194.24 25.45 C 193.18 25.45 192.28 25.5 191.54 25.6 L 191.54 25.6 L 191.3 27.07 L 193.31 27.28 L 193.31 27.28 C 195.35 27.5 196.8 27.987 197.66 28.74 L 197.66 28.74 L 197.66 28.74 C 198.52 29.487 198.95 30.49 198.95 31.75 L 198.95 31.75 L 198.95 31.75 C 198.95 33.03 198.67 34.35 198.11 35.71 L 198.11 35.71 L 198.11 35.71 C 197.83 36.41 197.523 36.997 197.19 37.47 L 197.19 37.47 L 197.19 37.47 C 196.863 37.937 196.443 38.333 195.93 38.66 L 195.93 38.66 L 195.93 38.66 C 195.423 38.993 194.96 39.243 194.54 39.41 L 194.54 39.41 L 194.54 39.41 C 194.12 39.583 193.59 39.71 192.95 39.79 L 192.95 39.79 L 192.95 39.79 C 192.01 39.93 190.86 40 189.5 40 L 189.5 40 L 189.5 40 C 187.02 40 184.77 39.74 182.75 39.22 Z" style="white-space: pre; fill: rgb(255, 255, 255);"/>
</svg>
